!! 00000] TT[WS
!!!OTL: Zao xikao
!!!ARE: Asia, China, Shanxi Xingxian
!! Ethnic Group: Han
!! WII, 73 (1)
!!!SCT: J0505
!!!YEM: Copyright 1995, estate of Helmut Schaffrath.
**kern
*ICvox
*Ivox
*M2/4
*k[b-]
*F:
{8cc
16cc
16a
16ff
16gg
16ff
16dd
=1
8.cc
16dd
8a
8g
=2
16ff
16gg
16ff
16dd
16cc
16dd
16a
16g
=3
8f
16g
16a
8d
8c}
=4
{16g
16a
4cc
16ff
16dd
=5
16cc
16dd
16a
16g
16f
16d
16f
16g
=6
16a
16g
16a
16cc
16g
16a
16f
16d
=7
8.c
16d
4c}
==
!!!AGN: Xiaodiao, Zouxikou. Qingge
!!!ONB: ESAC (Essen Associative Code) Database: CHINA
!!!AMT: simple duple
!!!AIN: vox
!!!EED: Helmut Schaffrath
!!!EEV: 1.0
*-
